build/img/icons/timer.svg

<svg width="40" height="41" viewBox="0 0 40 41" fill="none" xmlns="http://www.w3.org/2000/svg">
<path d="M33.5737 14.1013L36.1787 11.4963L33.822 9.13965L30.9754 11.9846C29.2254 10.9346 27.1854 10.318 24.9987 10.318C18.567 10.318 13.332 15.5513 13.332 21.9846C13.332 28.418 18.567 33.6513 24.9987 33.6513C31.4304 33.6513 36.6654 28.418 36.6654 21.9846C36.664 19.0614 35.56 16.2462 33.5737 14.1013ZM24.9987 30.318C20.4037 30.318 16.6654 26.5796 16.6654 21.9846C16.6654 17.3896 20.4037 13.6513 24.9987 13.6513C29.5937 13.6513 33.332 17.3896 33.332 21.9846C33.332 26.5796 29.5937 30.318 24.9987 30.318Z" fill="#5CC773"/>
<path d="M23.332 16.985H26.6654V23.6517H23.332V16.985ZM21.6654 5.31836H28.332V8.65169H21.6654V5.31836ZM4.9987 13.6517H11.6654V16.985H4.9987V13.6517ZM4.9987 26.985H11.6654V30.3184H4.9987V26.985ZM3.33203 20.3184H9.98203V23.6517H3.33203V20.3184Z" fill="#5CC773"/>
</svg>

<svg width="40" height="41" fill="none" xmlns="http://www.w3.org/2000/svg">
    <path d="m33.574 14.101 2.605-2.605-2.357-2.356-2.847 2.845A11.578 11.578 0 0 0 25 10.318c-6.432 0-11.667 5.233-11.667 11.667 0 6.433 5.235 11.666 11.667 11.666 6.431 0 11.666-5.233 11.666-11.666a11.61 11.61 0 0 0-3.091-7.884zm-8.575 16.217c-4.595 0-8.334-3.738-8.334-8.333 0-4.595 3.739-8.334 8.334-8.334s8.333 3.739 8.333 8.334-3.738 8.333-8.333 8.333z" fill="#5CC773"/>
    <path d="M23.332 16.985h3.333v6.667h-3.333v-6.667zM21.665 5.318h6.667v3.334h-6.667V5.318zM5 13.652h6.666v3.333H5v-3.333zm0 13.333h6.666v3.333H5v-3.333zm-1.667-6.667h6.65v3.334h-6.65v-3.334z" fill="#5CC773"/>
</svg>
